!!!!SEGMENT: pl-sa--257-a-vii-17_habermann-jan-piotr--lauda-sion.krn
!!!cenid: 17xx:290
!!!COM: Habermann, Jan Piotr
!!!COM-rism: pe30017777
!!!CDT: <1738->1762
!!!CNT:
!!!OTL: Lauda sion
!!!PDT: 1748
!!!AGN: Sacred
!!!SMS-siglum: PL-SA
!!!SMS-shelfmark: 257/A VII 17
!!!NIFC-rismID: 1001039864
!!!system-decoration: [(s1,s2)]s3,s4
**kern	**fba	**kern	**kern	**text	**text	**kern	**text	**text
*part4	*part4	*part3	*part2	*part2	*part2	*part1	*part1	*part1
*staff4	*staff4	*staff3	*staff2	*staff2	*staff2	*staff1	*staff1	*staff1
*I"Organo.	*	*I"Violino Solo.	*I"Baſso.	*	*	*I"Canto.	*	*
*I'org	*	*I'vl solo	*I'B	*	*	*I'S	*	*
*clefF4	*	*clefG2	*clefF4	*	*	*clefC1	*	*
*k[]	*	*k[]	*k[]	*	*	*k[]	*	*
*M4/4	*	*M4/4	*M4/4	*	*	*M4/4	*	*
*met(c)	*	*met(c)	*met(c)	*	*	*met(c)	*	*
=1	=1	=1	=1	=1	=1	=1	=1	=1
!LO:TX:a:t=P:wszystkie kaudy z prawej strony:problem	!	!LO:TX:a:t=P:wszystkie kaudy z prawej strony:problem	!LO:TX:a:t=P:wszystkie kaudy z prawej strony:problem	!	!	!LO:TX:a:t=P:wszystkie kaudy z prawej strony:problem	!	!
!LO:TX:b:Bi:t=Lauda ſion.:rj	!	!LO:TX:b:Bi:t=Lauda Sion.:rj	!	!	!	!	!	!
!	!	!	!LO:TX:a:B:t=5	!	!	!LO:TX:a:B:t=4	!	!
4C/	.	4gg\	00r	.	.	00r	.	.
4r	.	16ff\LL	.	.	.	.	.	.
.	.	16ee\	.	.	.	.	.	.
.	.	16dd\	.	.	.	.	.	.
.	.	16cc\JJ	.	.	.	.	.	.
!LO:TX:a:t=P:mixed beam:problem	!	!	!	!	!	!	!	!
16GG/LL	5	4aa\	.	.	.	.	.	.
16F\	.	.	.	.	.	.	.	.
16E\	.	.	.	.	.	.	.	.
16D\JJ	.	.	.	.	.	.	.	.
4E\	6 0	8gg\L	.	.	.	.	.	.
.	.	8cc\J	.	.	.	.	.	.
=2	=2	=2	=2	=2	=2	=2	=2	=2
8r	.	16dd\LL	.	.	.	.	.	.
.	.	16cc\	.	.	.	.	.	.
4r	.	16b\	.	.	.	.	.	.
.	.	16a\JJ	.	.	.	.	.	.
.	.	8g/L	.	.	.	.	.	.
8B\	6 0	8f/J	.	.	.	.	.	.
.	.	(<8qqf/	.	.	.	.	.	.
8c\L	.	4e/)	.	.	.	.	.	.
8G\J	.	.	.	.	.	.	.	.
4C/	.	16r	.	.	.	.	.	.
.	.	16g/LL	.	.	.	.	.	.
.	.	16a/	.	.	.	.	.	.
.	.	16b/JJ	.	.	.	.	.	.
=3	=3	=3	=3	=3	=3	=3	=3	=3
*	*^	*	*	*	*	*	*	*
4r	.	.	8.cc\L	.	.	.	.	.	.
.	.	.	16gg\Jk	.	.	.	.	.	.
8r	.	.	8cc\L	.	.	.	.	.	.
8E\	-6r 3	5	8g\J	.	.	.	.	.	.
4F\	3	.	8cc\L	.	.	.	.	.	.
.	.	.	16aa\L	.	.	.	.	.	.
.	.	.	16gg\JJ	.	.	.	.	.	.
8r	.	.	16ff\LL	.	.	.	.	.	.
.	.	.	16ee\	.	.	.	.	.	.
8F#X\	6 5	.	16dd\	.	.	.	.	.	.
.	.	.	16cc\JJ	.	.	.	.	.	.
!	!	!	!LO:LB:g=original	!	!	!	!	!	!
*	*v	*v	*	*	*	*	*	*	*
=4	=4	=4	=4	=4	=4	=4	=4	=4
4G\	n	8b\L	.	.	.	.	.	.
.	.	8cc\	.	.	.	.	.	.
8r	.	8g\	.	.	.	.	.	.
8d\	.	8ff\J	.	.	.	.	.	.
!LO:SIC:custos 8d:v	!	!	!	!	!	!	!	!
!LO:LB:g=original	!	!	!	!	!	!	!	!
!LO:TX:a:t=P:mixed beam:problem	!	!	!	!	!	!	!	!
16c\LL	.	4ee\	.	.	.	.	.	.
16C/	.	.	.	.	.	.	.	.
16E/	.	.	.	.	.	.	.	.
16C/JJ	.	.	.	.	.	.	.	.
!LO:TX:a:t=P:mixed beam:problem	!	!	!	!	!	!	!	!
8G\L	.	4ddT>\	.	.	.	.	.	.
8GG/J	.	.	.	.	.	.	.	.
=5	=5	=5	=5	=5	=5	=5	=5	=5
4C/	.	8cc/L	1r	.	.	2r	.	.
.	.	8g/J	.	.	.	.	.	.
4r	.	4c/	.	.	.	.	.	.
2r	.	2r	.	.	.	4cc\	Lau-	.
.	.	.	.	.	.	4dd\	-da	.
=6	=6	=6	=6	=6	=6	=6	=6	=6
4C/	.	4ee\	4C/	Lau-	.	4ee\	ſi-	.
8r	.	4ff\	4D/	-da	.	4b\	-on	.
8G\	.	.	.	.	.	.	.	.
4C/	.	16gg\LL	4E\	ſi-	.	2r	.	.
.	.	16ff\	.	.	.	.	.	.
.	.	16ee\	.	.	.	.	.	.
.	.	16dd\JJ	.	.	.	.	.	.
4r	.	4cc\	4E\	-on	.	.	.	.
=7	=7	=7	=7	=7	=7	=7	=7	=7
*	*^	*	*	*	*	*	*	*
4C/	.	.	1r	4G\	ſal-	.	4ee\	ſal-	.
4F\	6	5	.	(>8F\L	-va-	.	(>8dd\L	-va-	.
.	.	.	.	8E\J)	.	.	8cc\J)	.	.
8G\L	.	.	.	4D\	-to-	.	4b\	-to-	.
8D\J	.	.	.	.	.	.	.	.	.
4GG/	.	.	.	4D\	-rem,	.	4b\	-rem,	.
*	*v	*v	*	*	*	*	*	*	*
=8	=8	=8	=8	=8	=8	=8	=8	=8
1r	.	4dd\	4G\	Lau-	.	4b\	Lau-	.
.	.	4dd\	4F#X\	-dae	.	4a\	-da	.
!	!	!	!LO:SIC:s=custos 4F#X:v	!	!	!	!	!
!	!	!	!LO:LB:g=original	!	!	!	!	!
!	!	!LO:TX:a:t=P:mixed beam:problem	!	!	!	!	!	!
.	.	8d/L	4G\	Du-	.	4b\	Du-	.
.	.	8dd\	.	.	.	.	.	.
.	.	8b\	4G\	-cem,	.	4b\	-cem	.
.	.	8g\J	.	.	.	.	.	.
!	!	!	!	!	!	!LO:LB:g=original	!	!
=9	=9	=9	=9	=9	=9	=9	=9	=9
*	*	*	*	*	*	*	*ij	*
4G\	5 3	0r	4B\	Lau-	.	4dd\	Lau-	.
4F#X\	6 3	.	4A\	-da	.	4dd\	-da	.
4G\	5_ 3	.	4B\	Du-	.	4dd\	Du-	.
4F#X\	x 3	.	4B\	-cem,	.	4dd\	-cem	.
*	*	*	*	*	*	*	*Xij	*
!LO:LB:g=original	!	!	!	!	!	!	!	!
=10	=10	=10	=10	=10	=10	=10	=10	=10
2r	.	.	(>8B\L	Lau-	.	(>8dd\L	lau	.
.	.	.	8A\J)	.	.	8cc\J)	.	.
.	.	.	(>8A\L	-da	.	(>8cc\L	da	.
.	.	.	8G\J)	.	.	8b\J)	.	.
4C/	.	.	8c\	Du-	.	8ee\	Du-	.
.	.	.	8c\	-cem	.	8ee\	-cem	.
8r	.	.	8B\	et	.	8dd\	et	.
8D\	7 #	.	8A\	Pa-	.	8cc\	Pa-	.
!	!	!	!LO:LB:g=original	!	!	!	!	!
=11	=11	=11	=11	=11	=11	=11	=11	=11
*	*^	*	*	*	*	*	*	*
2G\	.	.	1r	4G\	-ſto-	.	4b\	-sto-	.
.	.	.	.	4G\	-rem	.	4b\	-rem	.
4r	.	.	.	2r	.	.	4dd\	in	.
4F#X\	6	5	.	.	.	.	(>8dd\L	hy-	.
.	.	.	.	.	.	.	8cc\J)	.	.
!	!	!	!	!	!	!	!LO:SIC:t=custos 8cc:v	!	!
!	!	!	!	!	!	!	!LO:LB:g=original	!	!
*	*v	*v	*	*	*	*	*	*	*
=12	=12	=12	=12	=12	=12	=12	=12	=12
4G\	8	2r	8r	.	.	8b\	-nis	.
.	.	.	8G\	et	.	(>16a\LL	et	.
.	.	.	.	.	.	16g\JJ)	.	.
!LO:TX:a:t=P:mixed beam:problem	!	!	!	!	!	!	!	!
.	.	.	.	.	.	8qqg/	.	.
!	!	!	!	!	!	!LO:TX:a:B:t=t	!	!
8d\L	#	.	8d\	can-	.	8.f#X/	can-	.
8D/J	.	.	8D/	-ti-	.	.	.	.
.	.	.	.	.	.	16f#/	-ti-	.
4G\	.	8r	4G\	-ciſ	.	4g/	-cis	.
.	.	8dd\L	.	.	.	.	.	.
4r	.	8dd\	4r	.	.	4r	.	.
.	.	8gg\J	.	.	.	.	.	.
!	!	!LO:LB:g=original	!	!	!	!	!	!
=13	=13	=13	=13	=13	=13	=13	=13	=13
*	*^	*	*	*	*	*	*	*
!	!	!	!	!	!	!	!LO:TX:a:B:t=2	!	!
4r	.	.	8.ff#X\L	1r	.	.	0r	.	.
.	.	.	16gg\Jk	.	.	.	.	.	.
8r	.	.	16aa\LL	.	.	.	.	.	.
.	.	.	16ff#X\	.	.	.	.	.	.
8D\	8 #	7	16dd\	.	.	.	.	.	.
.	.	.	16cc\JJ	.	.	.	.	.	.
4G\	.	.	8b\L	.	.	.	.	.	.
.	.	.	8bb\	.	.	.	.	.	.
4r	.	.	8aa\	.	.	.	.	.	.
.	.	.	8gg\J	.	.	.	.	.	.
=14	=14	=14	=14	=14	=14	=14	=14	=14	=14
!	!	!	!LO:TX:a:B:t=4	!	!	!	!	!	!
4.G\	5 3	5 2	00r	4G\	Lau-	.	.	.	.
.	.	.	.	4A\	-da	.	.	.	.
8F#X\	6 3	5	.	.	.	.	.	.	.
4G\	3	.	.	(>8B\L	ſi-	.	.	.	.
.	.	.	.	8A\J)	.	.	.	.	.
4r	.	.	.	4G\	-on	.	.	.	.
=15	=15	=15	=15	=15	=15	=15	=15	=15	=15
!LO:TX:a:t=P:mixed beam:problem	!	!	!	!	!	!	!	!	!
16c\LL	.	.	.	4C/	ſal-	.	4.cc\	ſal-	.
16C/	.	.	.	.	.	.	.	.	.
16E/	.	.	.	.	.	.	.	.	.
16D/JJ	.	.	.	.	.	.	.	.	.
16C/LL	6 5	7	.	4E\	-va-	.	.	.	.
16D/	.	.	.	.	.	.	.	.	.
16E/	.	.	.	.	.	.	8b-X\	-va-	.
16C/JJ	.	.	.	.	.	.	.	.	.
!LO:SIC:t=custos 16C:v	!	!	!	!	!	!	!	!	!
!LO:LB:g=original	!	!	!	!	!	!	!	!	!
!LO:TX:a:t=P:mixed beam:problem	!	!	!	!	!	!	!	!	!
16F\LL	.	.	.	4F\	-to-	.	4a\	-to-	.
16FF/	.	.	.	.	.	.	.	.	.
16F\	.	.	.	.	.	.	.	.	.
16G\JJ	.	.	.	.	.	.	.	.	.
16A\LL	.	.	.	4F\	-rem	.	4a\	-rem	.
16G\	.	.	.	.	.	.	.	.	.
16F\	.	.	.	.	.	.	.	.	.
16E\JJ	.	.	.	.	.	.	.	.	.
!	!	!	!	!LO:LB:g=original	!	!	!	!	!
*	*v	*v	*	*	*	*	*	*	*
=16	=16	=16	=16	=16	=16	=16	=16	=16
*	*	*	*	*ij	*	*	*ij	*
16D\LL	8 #	.	4.D\	ſal-	.	4dd\	ſal-	.
16D\	.	.	.	.	.	.	.	.
16F#X\	.	.	.	.	.	.	.	.
16E\JJ	.	.	.	.	.	.	.	.
16D\LL	7 #	.	.	.	.	4cc\	-va-	.
16E\	.	.	.	.	.	.	.	.
16F#X\	.	.	8F#X\	-va-	.	.	.	.
16D\JJ	.	.	.	.	.	.	.	.
!LO:TX:a:t=P:mixed beam:problem	!	!	!	!	!	!	!	!
16G\LL	.	.	4G\	-to-	.	4bn\	-to-	.
16GG/	.	.	.	.	.	.	.	.
16G\	.	.	.	.	.	.	.	.
16A\JJ	.	.	.	.	.	.	.	.
16B\LL	.	.	4G\	-rem	.	4b\	-rem	.
16G\	.	.	.	.	.	.	.	.
16A\	.	.	.	.	.	.	.	.
16B\JJ	.	.	.	.	.	.	.	.
*	*	*	*	*Xij	*	*	*Xij	*
=17	=17	=17	=17	=17	=17	=17	=17	=17
4c\	.	.	4r	.	.	4r	.	.
4r	.	.	8G\	Lau-	.	8ee\	Lau-	.
.	.	.	8G\	-da	.	8ee\	-da	.
!	!	!	!	!	!	!LO:LB:g=original	!	!
4r	.	.	8F\	Du-	.	8dd\	Du-	.
.	.	.	8F\	-cem	.	8dd\	-cem	.
8r	.	.	8F\	et	.	8dd\	et	.
8GG/	7 3	.	(>16G\LL	Pa-	.	(>16ee\LL	Pa-	.
.	.	.	16F\JJ)	.	.	16dd\JJ)	.	.
=18	=18	=18	=18	=18	=18	=18	=18	=18
4C/	.	4r	8E\	-ſto-	.	8cc\	-ſto-	.
.	.	.	8E\	-rem	.	8cc\	-rem	.
4r	.	8gg\L	4r	.	.	4r	.	.
.	.	8gg\J	.	.	.	.	.	.
4D\	.	8ff\L	2r	.	.	2r	.	.
.	.	8ff\J	.	.	.	.	.	.
4G\	.	8ff\L	.	.	.	.	.	.
.	.	16gg\L	.	.	.	.	.	.
.	.	16ff\JJ	.	.	.	.	.	.
=19	=19	=19	=19	=19	=19	=19	=19	=19
4C/	.	8ee\L	1r	.	.	1r	.	.
.	.	8ee\J	.	.	.	.	.	.
16G\LL	.	4r	.	.	.	.	.	.
16F\	.	.	.	.	.	.	.	.
16E\	.	.	.	.	.	.	.	.
16D\JJ	.	.	.	.	.	.	.	.
!LO:SIC:custos 16D:v	!	!	!	!	!	!	!	!
!LO:LB:g=original	!	!	!	!	!	!	!	!
!LO:TX:a:t=P:mixed beam:problem	!	!	!	!	!	!	!	!
8C/L	.	8r	.	.	.	.	.	.
8G\	.	8b\L	.	.	.	.	.	.
8A\	.	8cc\	.	.	.	.	.	.
8B\J	.	8dd\J	.	.	.	.	.	.
=20	=20	=20	=20	=20	=20	=20	=20	=20
4c\	.	8ee\L	2r	.	.	2r	.	.
.	.	16dd\L	.	.	.	.	.	.
.	.	16cc\JJ	.	.	.	.	.	.
!LO:TX:a:t=P:mixed beam:problem	!	!	!	!	!	!	!	!
8G\L	.	4bt>\	.	.	.	.	.	.
8GG/J	.	.	.	.	.	.	.	.
!	!	!LO:SIC:custos 4b:v	!	!	!	!	!	!
!	!	!LO:LB:g=original	!	!	!	!	!	!
4C/	.	4cc\	8r	.	.	8r	.	.
.	.	.	8G\	in	.	8b\	in	.
4r	.	4r	(>8A\L	hy-	.	(>8cc\L	hy-	.
.	.	.	8B\J)	.	.	8dd\J)	.	.
!	!	!	!	!	!	!LO:SIC:t=custos 8dd:v	!	!
!	!	!	!LO:LB:g=original	!	!	!LO:LB:g=original	!	!
=21	=21	=21	=21	=21	=21	=21	=21	=21
2r	.	2r	8c,\	-mniſ	.	8ee\	-mniſ	.
.	.	.	8c\	et	.	(>16dd\LL	et	.
.	.	.	.	.	.	16cc\JJ)	.	.
!	!	!	!	!	!	!LO:TX:a:B:t=t	!	!
.	.	.	8G\	can-	.	8.b\	can-	.
.	.	.	8G\	-ti-	.	.	.	.
.	.	.	.	.	.	16b\	-ti-	.
4r	.	8r	4C/	-ciſ	.	4cc\	-ciſ	.
.	.	8gg\L	.	.	.	.	.	.
8c\L	.	8cc\	4r	.	.	4r	.	.
8c\J	.	8gg\J	.	.	.	.	.	.
=22	=22	=22	=22	=22	=22	=22	=22	=22
!	!	!	!LO:TX:a:B:t=2	!	!	!LO:TX:a:B:t=2	!	!
4F\	.	16aa\LL	0r	.	.	0r	.	.
.	.	16gg\	.	.	.	.	.	.
.	.	16ff\	.	.	.	.	.	.
.	.	16ee\JJ	.	.	.	.	.	.
4r	.	8dd\L	.	.	.	.	.	.
.	.	8cc\J	.	.	.	.	.	.
!LO:TX:a:t=P:mixed beam:problem	!	!	!	!	!	!	!	!
.	.	8qqcc/	.	.	.	.	.	.
16G\LL	.	4b\	.	.	.	.	.	.
16GG/	.	.	.	.	.	.	.	.
16G\	.	.	.	.	.	.	.	.
16A\JJ	.	.	.	.	.	.	.	.
16G\LL	.	4r	.	.	.	.	.	.
16F\	.	.	.	.	.	.	.	.
16E\	.	.	.	.	.	.	.	.
16D\JJ	.	.	.	.	.	.	.	.
=23	=23	=23	=23	=23	=23	=23	=23	=23
4C/	.	16r	.	.	.	.	.	.
.	.	16g/LL	.	.	.	.	.	.
.	.	16a/	.	.	.	.	.	.
.	.	16b/JJ	.	.	.	.	.	.
4r	.	16cc\LL	.	.	.	.	.	.
.	.	16dd\	.	.	.	.	.	.
.	.	16ee\	.	.	.	.	.	.
.	.	16ff\JJ	.	.	.	.	.	.
8r	.	8gg\L	.	.	.	.	.	.
8A\L	.	8cc\J	.	.	.	.	.	.
.	.	8qqee/	.	.	.	.	.	.
8F\	.	4ddT>\	.	.	.	.	.	.
8G\J	.	.	.	.	.	.	.	.
!	!	!LO:LB:g=original	!	!	!	!	!	!
=24	=24	=24	=24	=24	=24	=24	=24	=24
4C/	.	8cc/L	2r	.	.	2r	.	.
.	.	8g/J	.	.	.	.	.	.
4r	.	4c/	.	.	.	.	.	.
8AA/L	.	2r	4A\	Quan-	.	4ee\	quan-	.
8BB/	.	.	.	.	.	.	.	.
8C/	.	.	4A\	-tum	.	4ee\	-tum	.
8D/J	.	.	.	.	.	.	.	.
!LO:LB:g=original	!	!	!	!	!	!	!	!
=25	=25	=25	=25	=25	=25	=25	=25	=25
8E\L	#	1r	4G#X\	po-	.	4ee\	po-	.
8F#X\	.	.	.	.	.	.	.	.
8G#X\	.	.	4G#\	-tes	.	4ee\	-teſ	.
8F#X\J	.	.	.	.	.	.	.	.
!	!	!	!	!	!	!LO:SIC:t=custos 4ee:v	!	!
!	!	!	!	!	!	!LO:LB:g=original	!	!
4E\	8 5	.	4E\	tan-	.	(>8ee\L	tan-	.
.	.	.	.	.	.	8ff\J)	.	.
8F#X\L	7	.	(>8F#X\L	-tum	.	(>8ee\L	-tum	.
8G#X\J	5	.	8G#X\J)	.	.	8dd\J)	.	.
!	!	!	!LO:LB:g=original	!	!	!	!	!
=26	=26	=26	=26	=26	=26	=26	=26	=26
4A\	.	2r	4A\	au-	.	(>8cc\L	au-	.
.	.	.	.	.	.	8b\J)	.	.
4A\	.	.	4A\	-de,	.	4a\	-de,	.
8Fn\L	8 5	4aa\	4Fn\	qui-	.	4ff\	qui-	.
8Gn\	.	.	.	.	.	.	.	.
8A\	.	4aa\	4F\	-a	.	4ff\	-a	.
8B-X\J	5	.	.	.	.	.	.	.
=27	=27	=27	=27	=27	=27	=27	=27	=27
*	*^	*	*	*	*	*	*	*
2c\	.	.	4gg\	4c\	ma-	.	4ee\	ma-	.
.	.	.	4gg\	4c\	-jor	.	4ee\	-jor,	.
4C/	6_ 5	7_	4.ee\	4C/	om-	.	(>8gg\L	om-	.
.	.	.	.	.	.	.	8ff\J)	.	.
4E/	x	x	.	4E\	-ni	.	(>8cc\L	-ni	.
.	.	.	8gg\	.	.	.	8b-X\J)	.	.
*	*v	*v	*	*	*	*	*	*	*
=28	=28	=28	=28	=28	=28	=28	=28	=28
2F\	.	2ff\	4F\	Lau-	.	4a\	lau-	.
.	.	.	4F\	-de,	.	4a\	-de	.
2AA/	#	4ee\	4.A\	nec	.	2r	.	.
.	.	4cc#X\	.	.	.	.	.	.
.	.	.	8G\	lau-	.	.	.	.
!LO:LB:g=original	!	!	!	!	!	!LO:LB:g=original	!	!
=29	=29	=29	=29	=29	=29	=29	=29	=29
2D\	.	4dd\	4F\	-da-	.	2r	.	.
.	.	4dd\	4D\	-re	.	.	.	.
8AA/L	.	2r	2r	.	.	(>8cc#X\L	nec	.
8BB/	.	.	.	.	.	8dd\J)	.	.
8C#X/	6	.	.	.	.	(>8ee\L	lau-	.
8AA/J	5	.	.	.	.	8cc#X\J)	.	.
!	!	!	!LO:LB:g=original	!	!	!	!	!
=30	=30	=30	=30	=30	=30	=30	=30	=30
!	!	!LO:TX:a:B:t=2	!	!	!	!	!	!
4D\	.	0r	2r	.	.	4ff\	-da-	.
4D\	.	.	.	.	.	4ff,\	-re	.
*	*	*	*	*	*	*	*ij	*
2Cn\	8 5	.	4c\	nec	.	4ee\	nec	.
.	.	.	4c\	lau-	.	4ee\	lau-	.
=31	=31	=31	=31	=31	=31	=31	=31	=31
4G\	n	.	4Bn\	-da-	.	4dd\	-da-	.
4C\	.	.	4c\	-re	.	(>8ee\L	-re	.
.	.	.	.	.	.	8ccn\J)	.	.
*	*	*	*	*	*	*	*Xij	*
!LO:TX:a:t=P:mixed beam:problem	!	!	!	!	!	!	!	!
!	!	!	!	!	!	!LO:TX:a:B:t=t	!	!
8G\L	4	.	4.G\	suf-	.	4.b\	ſuf-	.
8F\	.	.	.	.	.	.	.	.
8G\	n	.	.	.	.	.	.	.
8GG/J	.	.	8G\	-fi-	.	8b\	-fi-	.
=32	=32	=32	=32	=32	=32	=32	=32	=32
*	*^	*	*	*	*	*	*	*
4C\	.	.	2r	4C/	-cit	.	4cc\	-cit.	.
4D\	.	.	.	4r	.	.	4r	.	.
4E\	6	.	4gg\	2r	.	.	2r	.	.
4F\	6	5	8aa\L	.	.	.	.	.	.
.	.	.	8cc\J	.	.	.	.	.	.
!LO:SIC:t=custos 4F:v	!	!	!	!	!	!	!	!	!
!LO:PB:g=original	!	!	!LO:LB:g=original	!	!	!	!	!	!
*	*v	*v	*	*	*	*	*	*	*
=33	=33	=33	=33	=33	=33	=33	=33	=33
*	*^	*	*	*	*	*	*	*
!	!	!	!LO:TX:a:t=P:mixed beam:problem	!	!	!	!	!	!
!	!	!	!	!LO:TX:a:B:t=3	!	!	!LO:TX:a:B:t=4	!	!
2G\	n	.	8b/L	0r	.	.	00r	.	.
.	.	.	8g/	.	.	.	.	.	.
.	.	.	8dd\	.	.	.	.	.	.
.	.	.	8f/J	.	.	.	.	.	.
!LO:TX:a:t=P:mixed beam:problem	!	!	!LO:TX:a:t=P:mixed beam:problem	!	!	!	!	!	!
8c\L	.	.	8e/L	.	.	.	.	.	.
8C/	.	.	8gg\	.	.	.	.	.	.
8E/	.	.	8gg\	.	.	.	.	.	.
8C/J	6	7	8gg\J	.	.	.	.	.	.
*	*v	*v	*	*	*	*	*	*	*
=34	=34	=34	=34	=34	=34	=34	=34	=34
2F\	.	16aa\LL	.	.	.	.	.	.
.	.	16gg\	.	.	.	.	.	.
.	.	16ff\	.	.	.	.	.	.
.	.	16ee\JJ	.	.	.	.	.	.
.	.	8dd\L	.	.	.	.	.	.
.	.	8cc\J	.	.	.	.	.	.
!LO:TX:a:t=P:mixed beam:problem	!	!	!	!	!	!	!	!
8G\L	.	8b\L	.	.	.	.	.	.
8C/	5	8cc\J	.	.	.	.	.	.
8BB/	6_	8r	.	.	.	.	.	.
8GG/J	x	8ff\	.	.	.	.	.	.
=35	=35	=35	=35	=35	=35	=35	=35	=35
*	*^	*	*	*	*	*	*	*
4C\	.	.	4ee\	1r	.	.	.	.	.
8F\L	6_	.	4ddT>\	.	.	.	.	.	.
8G\J	x	3	.	.	.	.	.	.	.
8c\L	.	.	4cc\	.	.	.	.	.	.
8G\J	.	.	.	.	.	.	.	.	.
4C/	.	.	4r	.	.	.	.	.	.
*	*v	*v	*	*	*	*	*	*	*
=36	=36	=36	=36	=36	=36	=36	=36	=36
!	!	!LO:TX:a:B:t=7	!	!	!	!	!	!
4r	.	00r	4G\	Sit	.	.	.	.
4C/	.	.	4c\	laus	.	.	.	.
2G\	.	.	4B\	ple-	.	.	.	.
.	.	.	4G\	-na	.	.	.	.
!	!	!	!LO:TX:b:Bi:t=verte	!	!	!	!	!
!LO:LB:g=original	!	!	!LO:PB:g=original	!	!	!	!	!
=37	=37	=37	=37	=37	=37	=37	=37	=37
2.BB/	5	.	1r	.	.	4dd\	ſit	.
.	.	.	.	.	.	4ff\	do-	.
!	!	!	!	!	!	!LO:TX:a:B:t=t	!	!
.	.	.	.	.	.	4ff\	-no-	.
4C/	9	.	.	.	.	4ee\	-ra	.
!	!	!	!	!	!	!LO:TX:b:Bi:t=Verte	!	!
!	!	!	!	!	!	!LO:PB:g=original	!	!
=38	=38	=38	=38	=38	=38	=38	=38	=38
2r	.	.	(>8c\L	ſit	.	(>8ee\L	ſit	.
.	.	.	8B\J)	.	.	8dd\J)	.	.
.	.	.	(>8A\L	ju-	.	(>8cc\L	ju-	.
.	.	.	8G\J)	.	.	8b\J)	.	.
8A\L	3	.	4F\	-cun-	.	4a\	-cun-	.
8G\	3	.	.	.	.	.	.	.
8F\	3	.	4F\	-da,	.	4a\	-da,	.
8E\J	3	.	.	.	.	.	.	.
=39	=39	=39	=39	=39	=39	=39	=39	=39
4D\	3	.	(>8d\L	ſit	.	(>8ff\L	ſit	.
.	.	.	8c\J)	.	.	8ee\J)	.	.
4r	.	.	(>8B\L	de-	.	(>8dd\L	de-	.
.	.	.	8A\J)	.	.	8cc\J)	.	.
8G\L	n	.	4G\	-co-	.	4b\	-co-	.
8A\	.	.	.	.	.	.	.	.
8B\	.	.	4G\	-ra	.	4b\	-ra,	.
8G\J	.	.	.	.	.	.	.	.
=40	=40	=40	=40	=40	=40	=40	=40	=40
8G\L	.	0r	8B\	men-	.	8dd\	men-	.
8G\	.	.	8B\	-tis	.	8dd\	-tiſ	.
8G\	.	.	8B\	ju-	.	8dd\	ju-	.
8G\J	.	.	8B\	-bi-	.	8dd\	-bi-	.
4C/	.	.	16c\LL	-la-	.	16ee\LL	-la-	.
.	.	.	16B\	.	.	16dd\	.	.
.	.	.	16c\	.	.	16ee\	.	.
.	.	.	16d\JJ	.	.	16ff\JJ	.	.
4r	.	.	16c\LL	.	.	16ee\LL	.	.
.	.	.	16B\	.	.	16dd\	.	.
.	.	.	16A\	.	.	16cc\	.	.
.	.	.	16c\JJ	.	.	16ee\JJ	.	.
!LO:LB:g=original	!	!	!LO:LB:g=original	!	!	!	!	!
=41	=41	=41	=41	=41	=41	=41	=41	=41
*	*^	*	*	*	*	*	*	*
4D/	.	.	.	16d\LL	.	.	16ff\LL	.	.
.	.	.	.	16c\	.	.	16ee\	.	.
.	.	.	.	16d\	.	.	16ff\	.	.
.	.	.	.	16e\JJ	.	.	16gg\JJ	.	.
4r	.	.	.	16d\LL	.	.	16ff\LL	.	.
.	.	.	.	16c\	.	.	16ee\	.	.
.	.	.	.	16B\	.	.	16dd\	.	.
.	.	.	.	16d\JJ	.	.	16ff\JJ	.	.
!	!	!	!	!	!	!	!LO:LB:g=original	!	!
4C/	.	.	.	16c\LL	.	.	16ee\LL	.	.
.	.	.	.	16d\	.	.	16ff\	.	.
.	.	.	.	16e\	.	.	16gg\	.	.
.	.	.	.	16d\JJ	.	.	16ff\JJ	.	.
8r	.	.	.	16c\LL	.	.	16ee\LL	.	.
.	.	.	.	16B\	.	.	16dd\	.	.
8E\	-6r	5	.	16A\	.	.	16cc\	.	.
.	.	.	.	16G\JJ	.	.	16b\JJ	.	.
*	*v	*v	*	*	*	*	*	*	*
=42	=42	=42	=42	=42	=42	=42	=42	=42
4F\	.	1r	8F\L	.	.	8a\L	.	.
.	.	.	16f\L	.	.	16aa\L	.	.
.	.	.	16e\JJ	.	.	16gg\JJ	.	.
8r	.	.	16d\LL	.	.	16ff\LL	.	.
.	.	.	16c\	.	.	16ee\	.	.
8F#X\	6 5	.	16B\	.	.	16dd\	.	.
.	.	.	16A\JJ	.	.	16cc\JJ	.	.
8G\L	n6	.	16G\LL	.	.	8b\L	.	.
.	.	.	16F\	.	.	.	.	.
16E\L	.	.	16E\	.	.	8cc\J	.	.
16Fn\JJ	.	.	16F\JJ	.	.	.	.	.
!LO:TX:a:t=P:mixed beam:problem	!	!	!	!	!	!	!	!
.	.	.	.	.	.	8qqcc/	.	.
!	!	!	!	!	!	!LO:TX:a:B:t=t	!	!
8G\L	.	.	8G\	.	.	8.b\	.	.
8GG/J	.	.	8GG/	-ti-	.	.	.	.
.	.	.	.	.	.	16b\	-ti-	.
=43	=43	=43	=43	=43	=43	=43	=43	=43
4C/	.	16r	4C/	-o.	.	4cc\	-o,	.
.	.	16ccc\LL	.	.	.	.	.	.
.	.	16bb\	.	.	.	.	.	.
.	.	16ccc\JJ	.	.	.	.	.	.
4r	.	16gg\LL	4r	.	.	4r	.	.
.	.	16ff\	.	.	.	.	.	.
.	.	16ee\	.	.	.	.	.	.
.	.	16dd\JJ	.	.	.	.	.	.
!	!	!LO:SIC:custos 16dd:v	!	!	!	!	!	!
!	!	!LO:LB:g=original	!	!	!	!	!	!
16r	.	16cc\LL	2r	.	.	2r	.	.
16F\LL	.	16aa\	.	.	.	.	.	.
16E\	.	16gg\	.	.	.	.	.	.
16F\JJ	.	16aa\JJ	.	.	.	.	.	.
8D\L	.	16dd\LL	.	.	.	.	.	.
.	.	16cc\	.	.	.	.	.	.
8F#X\J	6 5	16b\	.	.	.	.	.	.
.	.	16a\JJ	.	.	.	.	.	.
!	!	!	!LO:LB:g=original	!	!	!	!	!
=44	=44	=44	=44	=44	=44	=44	=44	=44
!LO:TX:a:t=P:mixed beam:problem	!	!	!	!	!	!	!	!
!	!	!	!LO:TX:a:B:t=2	!	!	!LO:TX:a:B:t=2	!	!
8G\L	.	4g/	0r	.	.	0r	.	.
8GG/J	.	.	.	.	.	.	.	.
4r	.	16r	.	.	.	.	.	.
.	.	16dd\LL	.	.	.	.	.	.
.	.	16b\	.	.	.	.	.	.
.	.	16dd\JJ	.	.	.	.	.	.
!LO:LB:g=original	!	!	!	!	!	!	!	!
8r	.	16ee\LL	.	.	.	.	.	.
.	.	16gg\	.	.	.	.	.	.
8D\L	5	16ff\	.	.	.	.	.	.
.	.	16aa\JJ	.	.	.	.	.	.
!	!	!LO:TX:a:t=P:mixed beam:problem	!	!	!	!	!	!
8E\	3	16gg\LL	.	.	.	.	.	.
.	.	16cc\	.	.	.	.	.	.
8Fn\J	.	16aa\	.	.	.	.	.	.
.	.	16a/JJ	.	.	.	.	.	.
=45	=45	=45	=45	=45	=45	=45	=45	=45
!LO:TX:a:t=P:mixed beam:problem	!	!	!	!	!	!	!	!
8G\L	.	8b\L	.	.	.	.	.	.
8C\	.	16cc\L	.	.	.	.	.	.
.	.	16dd\JJ	.	.	.	.	.	.
!	!	!LO:TX:a:t=P:mixed beam:problem	!	!	!	!	!	!
8G\	.	8G/L	.	.	.	.	.	.
8GG/J	.	8b\J	.	.	.	.	.	.
4C/	.	4cc\	.	.	.	.	.	.
4r	.	4r	.	.	.	.	.	.
=46	=46	=46	=46	=46	=46	=46	=46	=46
!LO:TX:a:t=P:w źródle dopisana ołówkiem repetycja:problem	!	!LO:TX:a:t=P:w źródle dopisana ołówkiem repetycja:problem	!	!	!	!	!	!
!LO:TX:b:t=drugi ras stąt grac	!	!LO:TX:b:t=drugi ras stąd grac	!	!	!	!	!	!
8c\L	.	2r	2r	.	.	8ee\	quod	Nul-
8B\	.	.	.	.	.	8dd\	non	-la
8c\	.	.	.	.	.	8ee\	ca-	Re-
8B\J	.	.	.	.	.	8dd\	-piſ	-gi
4r	.	8ee\L	8c\	quod	Nul-	2r	.	.
.	.	8dd\	8B\	non	-la	.	.	.
8G\L	4	8ee\	8c\	vi-	Re-	.	.	.
8G\J	3	8dd\J	8B\	-des	-gi	.	.	.
!	!	!	!	!	!	!LO:LB:g=original	!	!
=47	=47	=47	=47	=47	=47	=47	=47	=47
*	*^	*	*	*	*	*	*	*
!	!	!	!LO:TX:a:B:t=4	!	!	!	!	!	!
16C\LL	8	.	00r	8c\	a-	fit	8cc\	a-	fit
16D\	.	.	.	.	.	.	.	.	.
16E\	6 -5	.	.	8c\	-ni-	sci-	8b-X\	-ni-	sci-
16C\JJ	.	.	.	.	.	.	.	.	.
!LO:TX:a:t=P:mixed beam:problem	!	!	!	!	!	!	!	!	!
16F\LL	3	.	.	8F\	-mo-	-su-	8a\	-mo-	-su-
16FF/	.	.	.	.	.	.	.	.	.
16F\	.	.	.	(>16F\LL	-sa	-ra	8cc\	-ſa	-ra
16E\JJ	.	.	.	16E\JJ)	.	.	.	.	.
8D\L	8 3_	.	.	8D/	fir-	si-	(>16dd\LL	fir-	si-
.	.	.	.	.	.	.	16cc\JJ)	.	.
8D\	6	5	.	8D/	-mat	-gni	(>16bn\LL	-mat	-gni-
.	.	.	.	.	.	.	16a\JJ)	.	.
8E\	#	.	.	8E\	fi-	tan-	8g#X/	fi-	-tan-
8E\J	.	.	.	8E\	-des	-tum	8e/	-deſ	-tum
!LO:LB:g=original	!	!	!	!	!	!	!	!	!
*	*v	*v	*	*	*	*	*	*	*
=48	=48	=48	=48	=48	=48	=48	=48	=48
4G#X\	6	.	8e\	pre-	fit	2r	.	.
.	.	.	8d\	-ter	fra-	.	.	.
4A\	0	.	8c\	re-	-ctu-	.	.	.
.	.	.	8A\	-rum	-ra	.	.	.
!	!	!	!LO:LB:g=original	!	!	!	!	!
8G#X\L	6	.	8G#X\	pre-	quam	8ee\	prae-	fit
8G#\	6 5	.	8G#\	-ter	nec	(>16ee\LL	-ter	fra-
.	.	.	.	.	.	16dd\JJ)	.	.
8A\	.	.	8A\	re-	sta-	(>16cc\LL	re-	-ctu-
.	.	.	.	.	.	16b\JJ)	.	.
8A\J	.	.	8A\	-rum	-tus	8cc\	-rum	-ra
=49	=49	=49	=49	=49	=49	=49	=49	=49
*	*	*	*	*ij	*	*	*ij	*
8r	.	.	8F#X\	pre-	nec	8dd\	prae-	quam
!LO:TX:a:t=P:mixed beam:problem	!	!	!	!	!	!	!	!
8D\L	5 #	.	8F#\	-ter	sta-	8cc\	-ter	nec
8Gn\	3	.	8Gn\	re-	-tu-	8b\	re-	sta-
8GG/J	.	.	8G\	-rum	-ra	8b\	-rum	-tus
*	*	*	*	*Xij	*	*	*Xij	*
!	!	!	!	!	!	!LO:LB:g=original	!	!
2r	.	.	8C/	pre-	si-	8cc\	prae-	nec
.	.	.	8D/	-ter	-gna-	8cc\	-ter	sta-
.	.	.	8E\	re-	-ti	8cc\	re-	-tu-
.	.	.	8F#\	-rum	mi-	(>16dd\LL	-rum	-ra
.	.	.	.	.	.	16cc\JJ)	.	.
=50	=50	=50	=50	=50	=50	=50	=50	=50
*	*^	*	*	*	*	*	*	*
!	!	!	!	!	!	!	!LO:TX:a:B:t=t	!	!
2r	.	.	.	8G\	or-	-nu-	8.b\	or-	si-
.	.	.	.	8G\	-di-	-i-	.	.	.
.	.	.	.	.	.	.	16b\	-di-	-gna-
.	.	.	.	4C/	-nem	-tur	4cc,\	-nem	-ti
!	!	!	!	!LO:SIC:t=custos 4C:v	!	!	!	!	!
!	!	!	!	!LO:LB:g=original	!	!	!	!	!
*	*	*	*	*	*ij	*	*	*ij	*
8C\L	8 7	.	.	8C/	pre-	si-	8cc\	prae-	mi-
8D\	.	.	.	8D/	-ter	-gna-	8cc\	-ter	-nu-
8E\	.	.	.	8E\	re-	-ti	8cc\	re-	-i-
8F\J	6 3	5	.	8F\	-rum	mi-	(>16dd\LL	-rum	-tur
.	.	.	.	.	.	.	16cc\JJ)	.	.
!	!	!	!LO:LB:g=original	!	!	!	!	!	!
=51	=51	=51	=51	=51	=51	=51	=51	=51	=51
!LO:TX:a:t=P:mixed beam:problem	!	!	!	!	!	!	!	!	!
!	!	!	!	!	!	!	!LO:TX:a:B:t=t	!	!
8G\L	n	.	2r	8G\	or-	-nu-	8.b\	or-	mi-
8GG/J	.	.	.	8GG/	-di-	-i-	.	.	.
.	.	.	.	.	.	.	16b\	-di-	-nui-
4C/	8	.	.	4C/	-nem	-tur	4cc\	-nem	-tur
*	*	*	*	*	*Xij	*	*	*Xij	*
8r	.	.	16cc\LL	2r	.	.	2r	.	.
.	.	.	16g\	.	.	.	.	.	.
8C/	6 3	7	16a\	.	.	.	.	.	.
.	.	.	16b-X\JJ	.	.	.	.	.	.
4F\	.	.	8a\L	.	.	.	.	.	.
.	.	.	16bn\L	.	.	.	.	.	.
.	.	.	16cc\JJ	.	.	.	.	.	.
!LO:LB:g=original	!	!	!	!	!	!	!	!	!
=52	=52	=52	=52	=52	=52	=52	=52	=52	=52
4F#X\	6	5	16dd\LL	0r	.	.	0r	.	.
.	.	.	16ee\	.	.	.	.	.	.
.	.	.	16cc\	.	.	.	.	.	.
.	.	.	16dd\JJ	.	.	.	.	.	.
4G\	.	.	8b\L	.	.	.	.	.	.
.	.	.	8g\J	.	.	.	.	.	.
16C\LL	8	.	2r	.	.	.	.	.	.
16G\	.	.	.	.	.	.	.	.	.
16D\	6	.	.	.	.	.	.	.	.
16G\JJ	.	.	.	.	.	.	.	.	.
!LO:TX:a:t=P:mixed beam:problem	!	!	!	!	!	!	!	!	!
16E\LL	6	.	.	.	.	.	.	.	.
16G\	.	.	.	.	.	.	.	.	.
16BB/	8	.	.	.	.	.	.	.	.
16GG/JJ	.	.	.	.	.	.	.	.	.
*	*v	*v	*	*	*	*	*	*	*
=53	=53	=53	=53	=53	=53	=53	=53	=53
!	!	!LO:TUP:a:problem:klamra łukowa	!	!	!	!	!	!
2r	.	24cc\LL	.	.	.	.	.	.
.	.	24dd\	.	.	.	.	.	.
.	.	24ee\JJ	.	.	.	.	.	.
!	!	!LO:TUP:a:problem:klamra łukowa	!	!	!	!	!	!
.	.	24dd\LL	.	.	.	.	.	.
.	.	24ee\	.	.	.	.	.	.
.	.	24ff\JJ	.	.	.	.	.	.
.	.	8ee\L	.	.	.	.	.	.
.	.	8dd\J	.	.	.	.	.	.
16C\LL	8	2r	.	.	.	.	.	.
16G\	.	.	.	.	.	.	.	.
16D\	6	.	.	.	.	.	.	.
16G\JJ	.	.	.	.	.	.	.	.
!LO:TX:a:t=P:mixed beam:problem	!	!	!	!	!	!	!	!
16E\LL	6	.	.	.	.	.	.	.
16G\	.	.	.	.	.	.	.	.
16BB/	8	.	.	.	.	.	.	.
16GG/JJ	.	.	.	.	.	.	.	.
=54	=54	=54	=54	=54	=54	=54	=54	=54
*	*^	*	*	*	*	*	*	*
8r	.	.	16ccc\LL	1r	.	.	1r	.	.
.	.	.	16bb\	.	.	.	.	.	.
8E\	4	3	16aa\	.	.	.	.	.	.
.	.	.	16gg\JJ	.	.	.	.	.	.
8F\L	3	.	16aa\LL	.	.	.	.	.	.
.	.	.	16ff\	.	.	.	.	.	.
16E\L	6	.	16gg\	.	.	.	.	.	.
16F\JJ	.	.	16cc\JJ	.	.	.	.	.	.
!LO:SIC:t=custos 16F:v	!	!	!	!	!	!	!	!	!
!LO:LB:g=original	!	!	!	!	!	!	!	!	!
!LO:TX:a:t=P:mixed beam:problem	!	!	!LO:TX:a:t=P:mixed beam:problem	!	!	!	!	!	!
8G\L	3_	.	8d/L	.	.	.	.	.	.
8GG/J	x	.	8b\J	.	.	.	.	.	.
4C;</	.	.	4cc\	.	.	.	.	.	.
!LO:TX:a:t=P:w źródle ozdobna kreska taktowa:problem	!	!	!LO:TX:a:t=P:w źródle ozdobna kreska taktowa:problem	!LO:TX:a:t=P:w źródle ozdobna kreska taktowa:problem	!	!	!LO:TX:a:t=P:w źródle ozdobna kreska taktowa:problem	!	!
*	*v	*v	*	*	*	*	*	*	*
==	==	==	==	==	==	==	==	==
*-	*-	*-	*-	*-	*-	*-	*-	*-
!!title: @{OTL};
!!!RDF**kern: > = above
!!!RDF**kern: < = below
!!!EED: Wojciech Jakubiak-Danek
!!!EST: 2020-10-26
!!!URL-scan: http://bc.bdsandomierz.pl/dlibra/publication/1774/edition/1742/content
!!!ONB-nifc:
!!!ENC: Krzysztof Stępień
!!!END: 2020-04-19
